X: 1
T: Trekant nr. 9
F: http://www.folketshus.dk/cgi-bin/visnode.cgitr-nr09
R: jig
Z: 2006 John Chambers <jc:trillian.mit.edu>
M: 6/8
L: 1/8
K: G
|: "G"G2G    G2G |    GFE "C"E2D |    E2E "D7"D2D | DFA "G"G3 :|
|: "G"D2D "C"c2c | "G"B2G    D2D | "C"E2E "D7"D2D | DFA "G"G3 :|
